packages/foundations/assets/icons/functional/images/environment/leaf_24.svg

<svg width="24" height="24" viewBox="0 0 24 24" fill="none" xmlns="http://www.w3.org/2000/svg">
<g clip-path="url(#clip0_185_815)">
<path fill-rule="evenodd" clip-rule="evenodd" d="M20.6692 5.95823C21.2491 6.05859 21.6173 6.63557 21.4642 7.20382C19.9398 12.8597 17.5062 16.2745 14.4885 17.6093C12.326 18.5657 9.97094 18.3155 8.45186 17.2774C6.52752 17.8499 4.71315 17.7404 3.14412 17.1181C2.10837 16.7903 2.30882 14.8257 3.85316 15.248C7.19681 16.4948 10.7152 14.8455 14.4085 10.3002C15.436 9.09521 16.7626 10.6912 16.0406 11.456C14.3678 13.6224 12.6527 15.1546 10.9752 16.1533C15.4864 16.5327 17.8513 12.0904 19.2044 7.81444C17.1088 7.68065 15.1792 7.95383 13.4155 8.63399C11.2369 9.49494 9.66225 11.0446 8.86864 13.212C8.4093 14.4665 6.48165 13.7478 6.99922 12.5012C8.45186 9.00234 10.4512 7.49829 13.5122 6.47449C16.8688 5.35184 20.6393 5.95336 20.6692 5.95823Z" fill="#1A1C1F"/>
</g>
<defs>
<clipPath id="clip0_185_815">
<rect width="24" height="24" fill="white"/>
</clipPath>
</defs>
</svg>

<svg xmlns="http://www.w3.org/2000/svg" width="24" height="24" fill="none"><g clip-path="url(#a)"><path fill="#1A1C1F" fill-rule="evenodd" d="M20.67 5.958a1 1 0 0 1 .794 1.246c-1.524 5.656-3.958 9.07-6.975 10.405-2.163.957-4.518.706-6.037-.332-1.924.573-3.739.463-5.308-.159-1.036-.328-.835-2.292.71-1.87q5.014 1.87 10.555-4.948c1.027-1.205 2.354.391 1.632 1.156-1.673 2.166-3.388 3.699-5.066 4.697 4.511.38 6.876-4.063 8.23-8.339q-3.144-.2-5.79.82c-2.178.86-3.753 2.41-4.546 4.578-.46 1.255-2.387.536-1.87-.71 1.453-3.5 3.452-5.004 6.513-6.028 3.357-1.122 7.127-.52 7.157-.516" clip-rule="evenodd"/></g><defs><clipPath id="a"><path fill="#fff" d="M0 0h24v24H0z"/></clipPath></defs></svg>
